images/svg/icons/social/pinterest_hover.svg

<?xml version="1.0" encoding="UTF-8" standalone="no"?>
<svg width="40px" height="40px" viewBox="0 0 40 40" version="1.1" xmlns="http://www.w3.org/2000/svg" xmlns:xlink="http://www.w3.org/1999/xlink" xmlns:sketch="http://www.bohemiancoding.com/sketch/ns">
    <!-- Generator: Sketch 3.5.2 (25235) - http://www.bohemiancoding.com/sketch -->
    <title>pinterest copy</title>
    <desc>Created with Sketch.</desc>
    <defs></defs>
    <g id="Icon" stroke="none" stroke-width="1" fill="none" fill-rule="evenodd" sketch:type="MSPage">
        <g id="Social-media-Icons" sketch:type="MSArtboardGroup" transform="translate(-77.000000, -457.000000)">
            <g id="pinterest-copy" sketch:type="MSLayerGroup" transform="translate(77.000000, 457.000000)">
                <path d="M0,0 L0,40 L40,40 L40,0 L0,0 L0,0 Z" id="bg" fill="#BD4644" sketch:type="MSShapeGroup"></path>
                <path d="M19.7941709,30.24 C18.8679397,30.24 17.838794,30.1370854 16.9125628,29.8283417 C17.3242211,29.2108543 17.7358794,28.3875377 18.0446231,27.6671357 C18.1475377,27.1525628 18.7650251,24.8884422 18.7650251,24.8884422 C19.1766834,25.6088442 20.2058291,26.2263317 21.3378894,26.2263317 C24.6311558,26.2263317 26.8952764,23.241809 26.8952764,19.2281407 C26.8952764,16.2436181 24.3224121,13.2590955 20.3087437,13.2590955 C15.4717588,13.2590955 12.8988945,16.758191 12.8988945,19.639799 C12.8988945,21.4922613 13.6192965,23.0359799 14.9571859,23.5505528 C15.1630151,23.6534673 15.4717588,23.5505528 15.4717588,23.3447236 C15.4717588,23.241809 15.5746734,22.7272362 15.6775879,22.521407 C15.7805025,22.3155779 15.6775879,22.1097487 15.5746734,21.9039196 C15.1630151,21.3893467 14.8542714,20.7718593 14.8542714,19.8456281 C14.8542714,17.2727638 16.8096482,14.9057286 19.8970854,14.9057286 C22.6757789,14.9057286 24.1165829,16.5523618 24.1165829,18.919397 C24.1165829,21.9039196 22.7786935,24.3738693 20.8233166,24.3738693 C19.6912563,24.3738693 18.8679397,23.5505528 19.279598,22.4184925 C19.6912563,21.080603 20.2058291,19.7427136 20.2058291,18.8164824 C20.2058291,17.9931658 19.6912563,17.2727638 18.8679397,17.2727638 C17.7358794,17.2727638 16.9125628,18.4048241 16.9125628,19.9485427 C16.9125628,20.8747739 17.3242211,21.4922613 17.3242211,21.4922613 C17.3242211,21.4922613 16.1921608,26.2263317 15.9863317,27.0496482 C15.7805025,27.7700503 15.7805025,28.6962814 15.8834171,29.519598 C12.281407,27.9758794 9.70854271,24.2709548 9.70854271,20.0514573 C9.70854271,14.3911558 14.3396985,9.76 20,9.76 C25.6603015,9.76 30.2914573,14.3911558 30.2914573,20.0514573 C30.0856281,25.6088442 25.4544724,30.24 19.7941709,30.24 L19.7941709,30.24 Z" id="icon" fill="#FFFFFF" sketch:type="MSShapeGroup"></path>
            </g>
        </g>
    </g>
</svg>

<?xml version="1.0" encoding="utf-8"?>
<!-- Generator: Adobe Illustrator 19.2.0, SVG Export Plug-In . SVG Version: 6.00 Build 0)  -->
<svg version="1.1" id="Layer_1" xmlns:sketch="http://www.bohemiancoding.com/sketch/ns"
	 xmlns="http://www.w3.org/2000/svg" xmlns:xlink="http://www.w3.org/1999/xlink" x="0px" y="0px" viewBox="0 0 40 40"
	 style="enable-background:new 0 0 40 40;" xml:space="preserve">
<style type="text/css">
	.st0{fill:#BD4644;}
	.st1{fill:#FFFFFF;}
</style>
<title>pinterest_hover</title>
<desc>Created with Sketch.</desc>
<g id="Page-1" sketch:type="MSPage">
	<g id="pinterest_hover" sketch:type="MSLayerGroup">
		<path id="bg" sketch:type="MSShapeGroup" class="st0" d="M0,0v40h40V0H0L0,0z"/>
		<path id="icon" sketch:type="MSShapeGroup" class="st1" d="M19.8,30.2c-0.9,0-2-0.1-2.9-0.4c0.4-0.6,0.8-1.4,1.1-2.2
			c0.1-0.5,0.7-2.8,0.7-2.8c0.4,0.7,1.4,1.3,2.6,1.3c3.3,0,5.6-3,5.6-7c0-3-2.6-6-6.6-6c-4.8,0-7.4,3.5-7.4,6.4
			c0,1.9,0.7,3.4,2.1,3.9c0.2,0.1,0.5,0,0.5-0.2c0-0.1,0.1-0.6,0.2-0.8c0.1-0.2,0-0.4-0.1-0.6c-0.4-0.5-0.7-1.1-0.7-2.1
			c0-2.6,2-4.9,5-4.9c2.8,0,4.2,1.6,4.2,4c0,3-1.3,5.5-3.3,5.5c-1.1,0-2-0.8-1.5-2c0.4-1.3,0.9-2.7,0.9-3.6c0-0.8-0.5-1.5-1.3-1.5
			c-1.1,0-2,1.1-2,2.7c0,0.9,0.4,1.5,0.4,1.5S16.2,26.2,16,27c-0.2,0.7-0.2,1.6-0.1,2.5c-3.6-1.5-6.2-5.2-6.2-9.5
			c0-5.7,4.6-10.3,10.3-10.3s10.3,4.6,10.3,10.3C30.1,25.6,25.5,30.2,19.8,30.2L19.8,30.2z"/>
	</g>
</g>
</svg>
